X:1
T:Radiant Morn, 88.84
T:Charles François Gounod, 1872
T:Radiant Morn, 88.84
T:Public Domain
C:Charles Fran&#231;ois Gounod, 1872
Z:Public Domain
%%score ( 1 2 ) ( 3 4 )
L:1/8
M:4/4
K:D
V:1 treble 
V:2 treble 
V:3 bass 
V:4 bass 
V:1
 [DF]2 | [DE]2 [DF]2 [DG]2 [CA]2 | [DG]2 (FE) D2 [DA]2 | [D^G]2 [DA]2 [CB]2 [Gc]2 | %4
 [FB]2 (A^G) [FA]2 [=GA]2 | [Fd]2 [Gc]2 A2 (cB) | [FA]2 [EG]2 [DF]2 [DA]2 | [DG]4 (F2 E2) | D6 |] %9
V:2
 x2 | x8 | x2 D2 x4 | x8 | x2 ^E2 x4 | x6 D2 | x8 | x4 C4 | D6 |] %9
V:3
 [D,A,]2 | [G,B,]2 [F,B,]2 [E,B,]2 [A,,A,]2 | [D,B,]2 (A,G,) [D,F,]2 [F,A,]2 | %3
 [=F,B,]2 [^F,A,]2 [^E,^G,]2 [E,C]2 | [F,D]2 (CB,) [F,C]2 [E,C]2 | [D,D]2 [E,A,]2 [F,D]2 [G,D]2 | %6
 [A,C]2 [^A,C]2 [B,D]2 [F,=A,]2 | [E,B,]4 (A,2 G,2) | [D,F,]6 |] %9
V:4
 x2 | x8 | x2 D,2 x4 | x8 | x2 F,2 x4 | x8 | x8 | x4 A,,4 | x6 |] %9

